X: 1
T:Fairy Dance (Dashing White Sergeant)
M:4/4
L:1/8
R:Reel
K:D
A| "D" f2 fd f2 fd | "D"f2 fd "A7"(cd)eg | "D"f2 fd "G"(gf)ed | "A"cABc
"D"defg :|!
"D" a2 af "G"b2 ba | "Em" g2 ge "A7"a2 ag| "D"f2 fd "G"(gf)ed | "A"cABc
"D"defg|!
"D"a2 af "G"b2 ba| "Em"gfge "A7"a2 (ag) |"D"fdfa "G"gfed | "A7"cABc "D"d
4||
